apps/app.mento.org/public/tokens/BRLm.svg

<svg width="220" height="220" viewBox="0 0 220 220" fill="none" xmlns="http://www.w3.org/2000/svg">
<path d="M110 220C170.751 220 220 170.751 220 110C220 49.2487 170.751 0 110 0C49.2487 0 0 49.2487 0 110C0 170.751 49.2487 220 110 220Z" fill="#510DC1"/>
<path d="M110 23C158.049 23 197 61.9512 197 110C197 158.049 158.049 197 110 197C61.9512 197 23 158.049 23 110C23 61.9512 61.9512 23 110 23Z" stroke="url(#paint0_linear_2057_403)" stroke-width="36"/>
<path d="M110 202C160.81 202 202 160.81 202 110C202 59.1898 160.81 18 110 18C59.1898 18 18 59.1898 18 110C18 160.81 59.1898 202 110 202Z" fill="#510DC1"/>
<path d="M140.579 156V145.907C125.26 144.549 115.115 136.3 114.717 121.451H127.946C128.244 130.283 133.715 133.97 140.579 135.038V114.561C124.365 111.359 116.607 105.633 116.607 93.4051C116.607 82.5359 126.056 74.7722 140.579 73.9958V64H148.138V74.0928C164.053 75.6456 171.712 84.5738 172.21 97.2869H159.279C158.881 90.2025 155.399 86.1266 148.138 84.962V103.886C168.529 107.671 174 114.173 174 124.848C174 137.658 163.456 145.228 148.138 146.004V156H140.579ZM130.333 93.0169C130.333 97.2869 131.925 99.9072 140.579 102.236V84.6709C134.312 85.3502 130.333 88.4557 130.333 93.0169ZM148.138 135.329C155.399 134.65 160.273 131.253 160.273 125.43C160.273 121.16 158.184 118.637 148.138 116.114V135.329Z" fill="url(#paint1_linear_2057_403)"/>
<path d="M46 144.942V75.0684H77.9295C95.3365 75.0684 103.294 83.4144 103.294 95.6422C103.294 102.63 99.2158 108.549 92.1535 112.431C98.0221 114.954 100.509 119.419 101.504 125.144L104.488 144.942H90.7609L88.3737 128.153C87.2795 120.583 83.5992 117.284 76.2385 117.284H59.3288V144.942H46ZM59.3288 106.803H76.2385C85.1907 106.803 89.4678 103.115 89.4678 96.4186C89.4678 89.6253 85.1907 85.9376 76.2385 85.9376H59.3288V106.803Z" fill="url(#paint2_linear_2057_403)"/>
<defs>
<linearGradient id="paint0_linear_2057_403" x1="110" y1="5" x2="110" y2="215" gradientUnits="userSpaceOnUse">
<stop stop-color="#1A9900"/>
<stop offset="0.35" stop-color="#FEF100"/>
<stop offset="0.65" stop-color="#FEF100"/>
<stop offset="1" stop-color="#1A9900"/>
</linearGradient>
<linearGradient id="paint1_linear_2057_403" x1="144.358" y1="64" x2="144.358" y2="156" gradientUnits="userSpaceOnUse">
<stop stop-color="#E2DBFF"/>
<stop offset="0.975962" stop-color="#FBFAFF"/>
</linearGradient>
<linearGradient id="paint2_linear_2057_403" x1="75.2438" y1="75.0684" x2="75.2438" y2="144.942" gradientUnits="userSpaceOnUse">
<stop stop-color="#E2DBFF"/>
<stop offset="0.975962" stop-color="#FBFAFF"/>
</linearGradient>
</defs>
</svg>

<svg xmlns="http://www.w3.org/2000/svg" width="220" height="220" fill="none" viewBox="0 0 220 220"><path fill="#510dc1" d="M110 220c60.751 0 110-49.249 110-110S170.751 0 110 0 0 49.249 0 110s49.249 110 110 110"/><path stroke="url(#a)" stroke-width="36" d="M110 23c48.049 0 87 38.951 87 87s-38.951 87-87 87-87-38.951-87-87 38.951-87 87-87Z"/><path fill="#510dc1" d="M110 202c50.81 0 92-41.19 92-92s-41.19-92-92-92-92 41.19-92 92 41.19 92 92 92"/><path fill="url(#b)" d="M140.579 156v-10.093c-15.319-1.358-25.464-9.607-25.862-24.456h13.229c.298 8.832 5.769 12.519 12.633 13.587v-20.477c-16.214-3.202-23.972-8.928-23.972-21.156 0-10.87 9.449-18.633 23.972-19.41V64h7.559v10.093c15.915 1.553 23.574 10.48 24.072 23.194h-12.931c-.398-7.085-3.88-11.16-11.141-12.325v18.924C168.529 107.671 174 114.173 174 124.848c0 12.81-10.544 20.38-25.862 21.156V156zm-10.246-62.983c0 4.27 1.592 6.89 10.246 9.219V84.671c-6.267.68-10.246 3.785-10.246 8.346m17.805 42.312c7.261-.679 12.135-4.076 12.135-9.899 0-4.27-2.089-6.793-12.135-9.316z"/><path fill="url(#c)" d="M46 144.942V75.068h31.93c17.406 0 25.364 8.346 25.364 20.574 0 6.988-4.078 12.907-11.14 16.789 5.868 2.523 8.355 6.988 9.35 12.713l2.984 19.798H90.761l-2.387-16.789c-1.094-7.57-4.775-10.869-12.135-10.869h-16.91v27.658zm13.329-38.139h16.91c8.952 0 13.229-3.688 13.229-10.384 0-6.794-4.277-10.481-13.23-10.481h-16.91z"/><defs><linearGradient id="a" x1="110" x2="110" y1="5" y2="215" gradientUnits="userSpaceOnUse"><stop stop-color="#1a9900"/><stop offset=".35" stop-color="#fef100"/><stop offset=".65" stop-color="#fef100"/><stop offset="1" stop-color="#1a9900"/></linearGradient><linearGradient id="b" x1="144.358" x2="144.358" y1="64" y2="156" gradientUnits="userSpaceOnUse"><stop stop-color="#e2dbff"/><stop offset=".976" stop-color="#fbfaff"/></linearGradient><linearGradient id="c" x1="75.244" x2="75.244" y1="75.068" y2="144.942" gradientUnits="userSpaceOnUse"><stop stop-color="#e2dbff"/><stop offset=".976" stop-color="#fbfaff"/></linearGradient></defs></svg>
